assets/1. Faces/Ear/Default/Color/ear_color_default.svg

<svg width="100%" height="100%" viewBox="0 0 32 32" fill="none" xmlns="http://www.w3.org/2000/svg">
<path d="M6.7077 23.4306C6.7077 26.6719 9.28912 29.6103 12.5765 29.861C14.9454 29.861 17.0345 28.4869 18.0235 26.6416L23.7794 16.4513C24.736 14.9904 25.2923 13.2438 25.2923 11.3672C25.2923 6.23519 21.132 2.07489 16 2.07489C10.868 2.07489 6.7077 6.23519 6.7077 11.3672C6.7077 15.5754 6.7077 19.2233 6.7077 23.4306Z" fill="#FFC94C"/>
<g filter="url(#filter0_f_20020_4615)">
<ellipse cx="17.3385" cy="9.0805" rx="7.27983" ry="4.65166" transform="rotate(26.0872 17.3385 9.0805)" fill="url(#paint0_radial_20020_4615)"/>
</g>
<g filter="url(#filter1_f_20020_4615)">
<path d="M12.5765 28.7353C9.28912 28.4846 8.03125 26.6719 8.03125 23.4306V12.1728L10.375 12.0166L19.5625 21.1728L16.625 26.1416C15.636 27.9869 14.9454 28.7353 12.5765 28.7353Z" fill="url(#paint1_linear_20020_4615)"/>
<path d="M12.5765 28.7353C9.28912 28.4846 8.03125 26.6719 8.03125 23.4306V12.1728L10.375 12.0166L19.5625 21.1728L16.625 26.1416C15.636 27.9869 14.9454 28.7353 12.5765 28.7353Z" fill="url(#paint2_linear_20020_4615)"/>
</g>
<g filter="url(#filter2_f_20020_4615)">
<circle cx="12.2838" cy="22.2175" r="2.92431" fill="url(#paint3_linear_20020_4615)"/>
</g>
<path d="M17.5 3.29782C19.4271 3.56865 23.475 5.24782 24.25 9.79782" stroke="black"/>
<circle cx="11.7548" cy="22.1418" r="3" fill="url(#paint4_linear_20020_4615)"/>
<circle cx="11.7548" cy="22.1418" r="3" fill="url(#paint5_radial_20020_4615)"/>
<g filter="url(#filter3_f_20020_4615)">
<circle cx="11.7735" cy="22.3134" r="2.61713" fill="#FFC947"/>
</g>
<g filter="url(#filter4_i_20020_4615)">
<path d="M18.167 22.6959C17.3026 22.2174 16.214 22.5252 15.7281 23.3855L14.8693 24.9058L14.8505 24.941C14.4849 25.623 13.6954 26.2571 12.7159 26.2571C11.461 26.2571 10.3077 24.8294 10.3077 23.4306V11.3672C10.3077 8.22341 12.8562 5.67489 16 5.67489C19.1438 5.67489 21.6923 8.22341 21.6923 11.3672C21.6923 11.671 21.6688 11.9686 21.6234 12.2584C21.4764 13.198 21.7492 14.2319 22.5662 14.7188C23.4656 15.2549 24.6496 14.9283 24.9368 13.9214C25.1683 13.1099 25.2923 12.253 25.2923 11.3672C25.2923 6.23519 21.132 2.07489 16 2.07489C10.868 2.07489 6.7077 6.23519 6.7077 11.3672V23.4306C6.7077 26.6719 9.28912 29.6103 12.5765 29.861C14.9454 29.861 17.0345 28.4869 18.0235 26.6416L18.8626 25.156C19.3545 24.2851 19.0421 23.1802 18.167 22.6959Z" fill="url(#paint6_linear_20020_4615)"/>
<path d="M18.167 22.6959C17.3026 22.2174 16.214 22.5252 15.7281 23.3855L14.8693 24.9058L14.8505 24.941C14.4849 25.623 13.6954 26.2571 12.7159 26.2571C11.461 26.2571 10.3077 24.8294 10.3077 23.4306V11.3672C10.3077 8.22341 12.8562 5.67489 16 5.67489C19.1438 5.67489 21.6923 8.22341 21.6923 11.3672C21.6923 11.671 21.6688 11.9686 21.6234 12.2584C21.4764 13.198 21.7492 14.2319 22.5662 14.7188C23.4656 15.2549 24.6496 14.9283 24.9368 13.9214C25.1683 13.1099 25.2923 12.253 25.2923 11.3672C25.2923 6.23519 21.132 2.07489 16 2.07489C10.868 2.07489 6.7077 6.23519 6.7077 11.3672V23.4306C6.7077 26.6719 9.28912 29.6103 12.5765 29.861C14.9454 29.861 17.0345 28.4869 18.0235 26.6416L18.8626 25.156C19.3545 24.2851 19.0421 23.1802 18.167 22.6959Z" fill="url(#paint7_radial_20020_4615)"/>
</g>
<path d="M18.167 22.6959C17.3026 22.2174 16.214 22.5252 15.7281 23.3855L14.8693 24.9058L14.8505 24.941C14.4849 25.623 13.6954 26.2571 12.7159 26.2571C11.461 26.2571 10.3077 24.8294 10.3077 23.4306V11.3672C10.3077 8.22341 12.8562 5.67489 16 5.67489C19.1438 5.67489 21.6923 8.22341 21.6923 11.3672C21.6923 11.671 21.6688 11.9686 21.6234 12.2584C21.4764 13.198 21.7492 14.2319 22.5662 14.7188C23.4656 15.2549 24.6496 14.9283 24.9368 13.9214C25.1683 13.1099 25.2923 12.253 25.2923 11.3672C25.2923 6.23519 21.132 2.07489 16 2.07489C10.868 2.07489 6.7077 6.23519 6.7077 11.3672V23.4306C6.7077 26.6719 9.28912 29.6103 12.5765 29.861C14.9454 29.861 17.0345 28.4869 18.0235 26.6416L18.8626 25.156C19.3545 24.2851 19.0421 23.1802 18.167 22.6959Z" fill="url(#paint8_radial_20020_4615)"/>
<path d="M18.167 22.6959C17.3026 22.2174 16.214 22.5252 15.7281 23.3855L14.8693 24.9058L14.8505 24.941C14.4849 25.623 13.6954 26.2571 12.7159 26.2571C11.461 26.2571 10.3077 24.8294 10.3077 23.4306V11.3672C10.3077 8.22341 12.8562 5.67489 16 5.67489C19.1438 5.67489 21.6923 8.22341 21.6923 11.3672C21.6923 11.671 21.6688 11.9686 21.6234 12.2584C21.4764 13.198 21.7492 14.2319 22.5662 14.7188C23.4656 15.2549 24.6496 14.9283 24.9368 13.9214C25.1683 13.1099 25.2923 12.253 25.2923 11.3672C25.2923 6.23519 21.132 2.07489 16 2.07489C10.868 2.07489 6.7077 6.23519 6.7077 11.3672V23.4306C6.7077 26.6719 9.28912 29.6103 12.5765 29.861C14.9454 29.861 17.0345 28.4869 18.0235 26.6416L18.8626 25.156C19.3545 24.2851 19.0421 23.1802 18.167 22.6959Z" fill="url(#paint9_radial_20020_4615)"/>
<path d="M18.167 22.6959C17.3026 22.2174 16.214 22.5252 15.7281 23.3855L14.8693 24.9058L14.8505 24.941C14.4849 25.623 13.6954 26.2571 12.7159 26.2571C11.461 26.2571 10.3077 24.8294 10.3077 23.4306V11.3672C10.3077 8.22341 12.8562 5.67489 16 5.67489C19.1438 5.67489 21.6923 8.22341 21.6923 11.3672C21.6923 11.671 21.6688 11.9686 21.6234 12.2584C21.4764 13.198 21.7492 14.2319 22.5662 14.7188C23.4656 15.2549 24.6496 14.9283 24.9368 13.9214C25.1683 13.1099 25.2923 12.253 25.2923 11.3672C25.2923 6.23519 21.132 2.07489 16 2.07489C10.868 2.07489 6.7077 6.23519 6.7077 11.3672V23.4306C6.7077 26.6719 9.28912 29.6103 12.5765 29.861C14.9454 29.861 17.0345 28.4869 18.0235 26.6416L18.8626 25.156C19.3545 24.2851 19.0421 23.1802 18.167 22.6959Z" fill="url(#paint10_radial_20020_4615)"/>
<path d="M18.167 22.6959C17.3026 22.2174 16.214 22.5252 15.7281 23.3855L14.8693 24.9058L14.8505 24.941C14.4849 25.623 13.6954 26.2571 12.7159 26.2571C11.461 26.2571 10.3077 24.8294 10.3077 23.4306V11.3672C10.3077 8.22341 12.8562 5.67489 16 5.67489C19.1438 5.67489 21.6923 8.22341 21.6923 11.3672C21.6923 11.671 21.6688 11.9686 21.6234 12.2584C21.4764 13.198 21.7492 14.2319 22.5662 14.7188C23.4656 15.2549 24.6496 14.9283 24.9368 13.9214C25.1683 13.1099 25.2923 12.253 25.2923 11.3672C25.2923 6.23519 21.132 2.07489 16 2.07489C10.868 2.07489 6.7077 6.23519 6.7077 11.3672V23.4306C6.7077 26.6719 9.28912 29.6103 12.5765 29.861C14.9454 29.861 17.0345 28.4869 18.0235 26.6416L18.8626 25.156C19.3545 24.2851 19.0421 23.1802 18.167 22.6959Z" fill="url(#paint11_radial_20020_4615)"/>
<path d="M18.167 22.6959C17.3026 22.2174 16.214 22.5252 15.7281 23.3855L14.8693 24.9058L14.8505 24.941C14.4849 25.623 13.6954 26.2571 12.7159 26.2571C11.461 26.2571 10.3077 24.8294 10.3077 23.4306V11.3672C10.3077 8.22341 12.8562 5.67489 16 5.67489C19.1438 5.67489 21.6923 8.22341 21.6923 11.3672C21.6923 11.671 21.6688 11.9686 21.6234 12.2584C21.4764 13.198 21.7492 14.2319 22.5662 14.7188C23.4656 15.2549 24.6496 14.9283 24.9368 13.9214C25.1683 13.1099 25.2923 12.253 25.2923 11.3672C25.2923 6.23519 21.132 2.07489 16 2.07489C10.868 2.07489 6.7077 6.23519 6.7077 11.3672V23.4306C6.7077 26.6719 9.28912 29.6103 12.5765 29.861C14.9454 29.861 17.0345 28.4869 18.0235 26.6416L18.8626 25.156C19.3545 24.2851 19.0421 23.1802 18.167 22.6959Z" fill="url(#paint12_radial_20020_4615)"/>
<g filter="url(#filter5_f_20020_4615)">
<path d="M16.9398 3.57907C19.2315 3.95407 23.8586 6.01032 24.0336 11.2353" stroke="url(#paint13_linear_20020_4615)" stroke-width="2" stroke-linecap="round"/>
</g>
<g filter="url(#filter6_f_20020_4615)">
<path d="M9.0625 10.2353V23.8916C9.08434 24.7874 9.39583 27.3002 12.125 27.9228C14.4222 28.4468 15.75 27.2353 16.4004 26.0166L17.625 23.8916" stroke="url(#paint14_linear_20020_4615)" stroke-width="1.5" stroke-linecap="round"/>
</g>
<defs>
<filter id="filter0_f_20020_4615" x="9.4859" y="2.81699" width="15.7051" height="12.527" filterUnits="userSpaceOnUse" color-interpolation-filters="sRGB">
<feFlood flood-opacity="0" result="BackgroundImageFix"/>
<feBlend mode="normal" in="SourceGraphic" in2="BackgroundImageFix" result="shape"/>
<feGaussianBlur stdDeviation="0.5" result="effect1_foregroundBlur_20020_4615"/>
</filter>
<filter id="filter1_f_20020_4615" x="7.53125" y="11.5166" width="12.5312" height="17.7188" filterUnits="userSpaceOnUse" color-interpolation-filters="sRGB">
<feFlood flood-opacity="0" result="BackgroundImageFix"/>
<feBlend mode="normal" in="SourceGraphic" in2="BackgroundImageFix" result="shape"/>
<feGaussianBlur stdDeviation="0.25" result="effect1_foregroundBlur_20020_4615"/>
</filter>
<filter id="filter2_f_20020_4615" x="8.6095" y="18.5432" width="7.34863" height="7.3486" filterUnits="userSpaceOnUse" color-interpolation-filters="sRGB">
<feFlood flood-opacity="0" result="BackgroundImageFix"/>
<feBlend mode="normal" in="SourceGraphic" in2="BackgroundImageFix" result="shape"/>
<feGaussianBlur stdDeviation="0.375" result="effect1_foregroundBlur_20020_4615"/>
</filter>
<filter id="filter3_f_20020_4615" x="8.65637" y="19.1963" width="6.23425" height="6.23425" filterUnits="userSpaceOnUse" color-interpolation-filters="sRGB">
<feFlood flood-opacity="0" result="BackgroundImageFix"/>
<feBlend mode="normal" in="SourceGraphic" in2="BackgroundImageFix" result="shape"/>
<feGaussianBlur stdDeviation="0.25" result="effect1_foregroundBlur_20020_4615"/>
</filter>
<filter id="filter4_i_20020_4615" x="6.7077" y="2.07489" width="19.0846" height="27.7861" filterUnits="userSpaceOnUse" color-interpolation-filters="sRGB">
<feFlood flood-opacity="0" result="BackgroundImageFix"/>
<feBlend mode="normal" in="SourceGraphic" in2="BackgroundImageFix" result="shape"/>
<feColorMatrix in="SourceAlpha" type="matrix" values="0 0 0 0 0 0 0 0 0 0 0 0 0 0 0 0 0 0 127 0" result="hardAlpha"/>
<feOffset dx="0.5"/>
<feGaussianBlur stdDeviation="1"/>
<feComposite in2="hardAlpha" operator="arithmetic" k2="-1" k3="1"/>
<feColorMatrix type="matrix" values="0 0 0 0 0.917647 0 0 0 0 0.6 0 0 0 0 0.231373 0 0 0 1 0"/>
<feBlend mode="normal" in2="shape" result="effect1_innerShadow_20020_4615"/>
</filter>
<filter id="filter5_f_20020_4615" x="14.4397" y="1.07892" width="12.0939" height="12.6564" filterUnits="userSpaceOnUse" color-interpolation-filters="sRGB">
<feFlood flood-opacity="0" result="BackgroundImageFix"/>
<feBlend mode="normal" in="SourceGraphic" in2="BackgroundImageFix" result="shape"/>
<feGaussianBlur stdDeviation="0.75" result="effect1_foregroundBlur_20020_4615"/>
</filter>
<filter id="filter6_f_20020_4615" x="6.8125" y="7.98532" width="13.0626" height="22.3128" filterUnits="userSpaceOnUse" color-interpolation-filters="sRGB">
<feFlood flood-opacity="0" result="BackgroundImageFix"/>
<feBlend mode="normal" in="SourceGraphic" in2="BackgroundImageFix" result="shape"/>
<feGaussianBlur stdDeviation="0.75" result="effect1_foregroundBlur_20020_4615"/>
</filter>
<radialGradient id="paint0_radial_20020_4615" cx="0" cy="0" r="1" gradientUnits="userSpaceOnUse" gradientTransform="translate(17.3385 13.7322) rotate(-90.1559) scale(8.19144 14.286)">
<stop offset="0.415385" stop-color="#EE8820" stop-opacity="0"/>
<stop offset="0.847781" stop-color="#EE8820"/>
</radialGradient>
<linearGradient id="paint1_linear_20020_4615" x1="12.875" y1="12.5791" x2="10.1214" y2="18.1734" gradientUnits="userSpaceOnUse">
<stop stop-color="#E58403"/>
<stop offset="1" stop-color="#E58403" stop-opacity="0"/>
</linearGradient>
<linearGradient id="paint2_linear_20020_4615" x1="13.5625" y1="27.5166" x2="15.5625" y2="21.9228" gradientUnits="userSpaceOnUse">
<stop offset="0.218308" stop-color="#E2992F"/>
<stop offset="1" stop-color="#E2992F" stop-opacity="0"/>
</linearGradient>
<linearGradient id="paint3_linear_20020_4615" x1="14.6413" y1="20.5303" x2="12.5326" y2="24.2417" gradientUnits="userSpaceOnUse">
<stop offset="0.340362" stop-color="#FFE15B"/>
<stop offset="1" stop-color="#C97A03"/>
</linearGradient>
<linearGradient id="paint4_linear_20020_4615" x1="11.7548" y1="19.1418" x2="11.7548" y2="25.1418" gradientUnits="userSpaceOnUse">
<stop stop-color="#FFC609"/>
<stop offset="1" stop-color="#FEA70C"/>
</linearGradient>
<radialGradient id="paint5_radial_20020_4615" cx="0" cy="0" r="1" gradientUnits="userSpaceOnUse" gradientTransform="translate(15.0438 20.6261) rotate(146.004) scale(3.24158 3.7019)">
<stop stop-color="#FFE663"/>
<stop offset="1" stop-color="#FFE663" stop-opacity="0"/>
</radialGradient>
<linearGradient id="paint6_linear_20020_4615" x1="11.5625" y1="31.5166" x2="20" y2="-0.858436" gradientUnits="userSpaceOnUse">
<stop stop-color="#F0A130"/>
<stop offset="1" stop-color="#FFD135"/>
</linearGradient>
<radialGradient id="paint7_radial_20020_4615" cx="0" cy="0" r="1" gradientUnits="userSpaceOnUse" gradientTransform="translate(17.5 10.8291) rotate(-55.1378) scale(6.77916 7.59028)">
<stop offset="0.478368" stop-color="#F49419"/>
<stop offset="1" stop-color="#F49419" stop-opacity="0"/>
</radialGradient>
<radialGradient id="paint8_radial_20020_4615" cx="0" cy="0" r="1" gradientUnits="userSpaceOnUse" gradientTransform="translate(23.2316 15.2663) rotate(-88.2242) scale(4.62696 6.13729)">
<stop offset="0.174469" stop-color="#FFCC4C"/>
<stop offset="1" stop-color="#FFCC4C" stop-opacity="0"/>
</radialGradient>
<radialGradient id="paint9_radial_20020_4615" cx="0" cy="0" r="1" gradientUnits="userSpaceOnUse" gradientTransform="translate(18.1129 22.8618) rotate(115.159) scale(4.97005 4.84669)">
<stop offset="0.241661" stop-color="#FFCA4D"/>
<stop offset="1" stop-color="#FFCA4D" stop-opacity="0"/>
</radialGradient>
<radialGradient id="paint10_radial_20020_4615" cx="0" cy="0" r="1" gradientUnits="userSpaceOnUse" gradientTransform="translate(22.625 26.4541) rotate(-115.896) scale(26.3315 19.1931)">
<stop offset="0.953393" stop-color="#CEA561" stop-opacity="0"/>
<stop offset="1" stop-color="#CEA561"/>
</radialGradient>
<radialGradient id="paint11_radial_20020_4615" cx="0" cy="0" r="1" gradientUnits="userSpaceOnUse" gradientTransform="translate(14.5835 7.98218) rotate(98.1672) scale(22.103 17.2554)">
<stop offset="0.912279" stop-color="#D98286" stop-opacity="0"/>
<stop offset="1" stop-color="#D98286"/>
</radialGradient>
<radialGradient id="paint12_radial_20020_4615" cx="0" cy="0" r="1" gradientUnits="userSpaceOnUse" gradientTransform="translate(10.3437 22.1416) scale(2.09375 3.71875)">
<stop stop-color="#FFCD49"/>
<stop offset="0.975047" stop-color="#FFCD49" stop-opacity="0"/>
</radialGradient>
<linearGradient id="paint13_linear_20020_4615" x1="24.9711" y1="11.2353" x2="17.5648" y2="3.42282" gradientUnits="userSpaceOnUse">
<stop stop-color="#FFED65" stop-opacity="0"/>
<stop offset="0.509619" stop-color="#FFED65"/>
<stop offset="1" stop-color="#FFED65" stop-opacity="0"/>
</linearGradient>
<linearGradient id="paint14_linear_20020_4615" x1="8.3125" y1="2.01656" x2="21.2512" y2="24.1214" gradientUnits="userSpaceOnUse">
<stop stop-color="#FFED65" stop-opacity="0"/>
<stop offset="0.69801" stop-color="#FFED65"/>
</linearGradient>
</defs>
</svg>

<svg width="100%" height="100%" viewBox="0 0 32 32" xmlns="http://www.w3.org/2000/svg"><path fill="#FFC94C" d="M6.708 23.43c0 3.242 2.581 6.18 5.868 6.431 2.37 0 4.459-1.374 5.447-3.22l5.756-10.19a9.292 9.292 0 1 0-17.072-5.084z"/><g filter="url(#a)"><ellipse cx="17.338" cy="9.081" fill="url(#b)" rx="7.28" ry="4.652" transform="rotate(26.087 17.338 9.08)"/></g><g filter="url(#c)"><path fill="url(#d)" d="M12.577 28.735c-3.288-.25-4.546-2.063-4.546-5.304V12.173l2.344-.156 9.188 9.156-2.938 4.969c-.989 1.845-1.68 2.593-4.049 2.593"/><path fill="url(#e)" d="M12.577 28.735c-3.288-.25-4.546-2.063-4.546-5.304V12.173l2.344-.156 9.188 9.156-2.938 4.969c-.989 1.845-1.68 2.593-4.049 2.593"/></g><g filter="url(#f)"><circle cx="12.284" cy="22.218" r="2.924" fill="url(#g)"/></g><path stroke="#000" d="M17.5 3.298c1.927.27 5.975 1.95 6.75 6.5"/><circle cx="11.755" cy="22.142" r="3" fill="url(#h)"/><circle cx="11.755" cy="22.142" r="3" fill="url(#i)"/><g filter="url(#j)"><circle cx="11.774" cy="22.313" r="2.617" fill="#FFC947"/></g><g filter="url(#k)"><path fill="url(#l)" d="M18.167 22.696a1.8 1.8 0 0 0-2.439.69l-.859 1.52-.018.035c-.366.682-1.156 1.316-2.135 1.316-1.255 0-2.408-1.428-2.408-2.826V11.367a5.692 5.692 0 1 1 11.315.891c-.147.94.126 1.974.943 2.46.9.537 2.084.21 2.37-.797a9.292 9.292 0 1 0-18.23-2.554v12.064c.002 3.24 2.583 6.18 5.87 6.43 2.37 0 4.459-1.374 5.447-3.22l.84-1.485a1.8 1.8 0 0 0-.696-2.46"/><path fill="url(#m)" d="M18.167 22.696a1.8 1.8 0 0 0-2.439.69l-.859 1.52-.018.035c-.366.682-1.156 1.316-2.135 1.316-1.255 0-2.408-1.428-2.408-2.826V11.367a5.692 5.692 0 1 1 11.315.891c-.147.94.126 1.974.943 2.46.9.537 2.084.21 2.37-.797a9.292 9.292 0 1 0-18.23-2.554v12.064c.002 3.24 2.583 6.18 5.87 6.43 2.37 0 4.459-1.374 5.447-3.22l.84-1.485a1.8 1.8 0 0 0-.696-2.46"/></g><path fill="url(#n)" d="M18.167 22.696a1.8 1.8 0 0 0-2.439.69l-.859 1.52-.018.035c-.366.682-1.156 1.316-2.135 1.316-1.255 0-2.408-1.428-2.408-2.826V11.367a5.692 5.692 0 1 1 11.315.891c-.147.94.126 1.974.943 2.46.9.537 2.084.21 2.37-.797a9.292 9.292 0 1 0-18.23-2.554v12.064c.002 3.24 2.583 6.18 5.87 6.43 2.37 0 4.459-1.374 5.447-3.22l.84-1.485a1.8 1.8 0 0 0-.696-2.46"/><path fill="url(#o)" d="M18.167 22.696a1.8 1.8 0 0 0-2.439.69l-.859 1.52-.018.035c-.366.682-1.156 1.316-2.135 1.316-1.255 0-2.408-1.428-2.408-2.826V11.367a5.692 5.692 0 1 1 11.315.891c-.147.94.126 1.974.943 2.46.9.537 2.084.21 2.37-.797a9.292 9.292 0 1 0-18.23-2.554v12.064c.002 3.24 2.583 6.18 5.87 6.43 2.37 0 4.459-1.374 5.447-3.22l.84-1.485a1.8 1.8 0 0 0-.696-2.46"/><path fill="url(#p)" d="M18.167 22.696a1.8 1.8 0 0 0-2.439.69l-.859 1.52-.018.035c-.366.682-1.156 1.316-2.135 1.316-1.255 0-2.408-1.428-2.408-2.826V11.367a5.692 5.692 0 1 1 11.315.891c-.147.94.126 1.974.943 2.46.9.537 2.084.21 2.37-.797a9.292 9.292 0 1 0-18.23-2.554v12.064c.002 3.24 2.583 6.18 5.87 6.43 2.37 0 4.459-1.374 5.447-3.22l.84-1.485a1.8 1.8 0 0 0-.696-2.46"/><path fill="url(#q)" d="M18.167 22.696a1.8 1.8 0 0 0-2.439.69l-.859 1.52-.018.035c-.366.682-1.156 1.316-2.135 1.316-1.255 0-2.408-1.428-2.408-2.826V11.367a5.692 5.692 0 1 1 11.315.891c-.147.94.126 1.974.943 2.46.9.537 2.084.21 2.37-.797a9.292 9.292 0 1 0-18.23-2.554v12.064c.002 3.24 2.583 6.18 5.87 6.43 2.37 0 4.459-1.374 5.447-3.22l.84-1.485a1.8 1.8 0 0 0-.696-2.46"/><path fill="url(#r)" d="M18.167 22.696a1.8 1.8 0 0 0-2.439.69l-.859 1.52-.018.035c-.366.682-1.156 1.316-2.135 1.316-1.255 0-2.408-1.428-2.408-2.826V11.367a5.692 5.692 0 1 1 11.315.891c-.147.94.126 1.974.943 2.46.9.537 2.084.21 2.37-.797a9.292 9.292 0 1 0-18.23-2.554v12.064c.002 3.24 2.583 6.18 5.87 6.43 2.37 0 4.459-1.374 5.447-3.22l.84-1.485a1.8 1.8 0 0 0-.696-2.46"/><g filter="url(#s)"><path stroke="url(#t)" stroke-linecap="round" stroke-width="2" d="M16.94 3.58c2.291.374 6.919 2.43 7.094 7.655"/></g><g filter="url(#u)"><path stroke="url(#v)" stroke-linecap="round" stroke-width="1.5" d="M9.063 10.235v13.657c.021.895.333 3.408 3.062 4.03 2.297.525 3.625-.687 4.275-1.905l1.225-2.125"/></g><defs><radialGradient id="b" cx="0" cy="0" r="1" gradientTransform="rotate(-90.156 15.517 -1.78)scale(8.19144 14.286)" gradientUnits="userSpaceOnUse"><stop offset=".415" stop-color="#EE8820" stop-opacity="0"/><stop offset=".848" stop-color="#EE8820"/></radialGradient><radialGradient id="i" cx="0" cy="0" r="1" gradientTransform="rotate(146.004 4.37 12.612)scale(3.24158 3.7019)" gradientUnits="userSpaceOnUse"><stop stop-color="#FFE663"/><stop offset="1" stop-color="#FFE663" stop-opacity="0"/></radialGradient><radialGradient id="m" cx="0" cy="0" r="1" gradientTransform="matrix(3.875 -5.5625 6.22805 4.33864 17.5 10.83)" gradientUnits="userSpaceOnUse"><stop offset=".478" stop-color="#F49419"/><stop offset="1" stop-color="#F49419" stop-opacity="0"/></radialGradient><radialGradient id="n" cx="0" cy="0" r="1" gradientTransform="matrix(.14338 -4.62474 6.13434 .19019 23.232 15.266)" gradientUnits="userSpaceOnUse"><stop offset=".174" stop-color="#FFCC4C"/><stop offset="1" stop-color="#FFCC4C" stop-opacity="0"/></radialGradient><radialGradient id="o" cx="0" cy="0" r="1" gradientTransform="rotate(115.159 1.796 17.183)scale(4.97005 4.84669)" gradientUnits="userSpaceOnUse"><stop offset=".242" stop-color="#FFCA4D"/><stop offset="1" stop-color="#FFCA4D" stop-opacity="0"/></radialGradient><radialGradient id="p" cx="0" cy="0" r="1" gradientTransform="rotate(-115.896 19.594 6.144)scale(26.3315 19.1931)" gradientUnits="userSpaceOnUse"><stop offset=".953" stop-color="#CEA561" stop-opacity="0"/><stop offset="1" stop-color="#CEA561"/></radialGradient><radialGradient id="q" cx="0" cy="0" r="1" gradientTransform="matrix(-3.14 21.87883 -17.0804 -2.45134 14.584 7.982)" gradientUnits="userSpaceOnUse"><stop offset=".912" stop-color="#D98286" stop-opacity="0"/><stop offset="1" stop-color="#D98286"/></radialGradient><radialGradient id="r" cx="0" cy="0" r="1" gradientTransform="matrix(2.09375 0 0 3.71875 10.344 22.142)" gradientUnits="userSpaceOnUse"><stop stop-color="#FFCD49"/><stop offset=".975" stop-color="#FFCD49" stop-opacity="0"/></radialGradient><linearGradient id="d" x1="12.875" x2="10.121" y1="12.579" y2="18.173" gradientUnits="userSpaceOnUse"><stop stop-color="#E58403"/><stop offset="1" stop-color="#E58403" stop-opacity="0"/></linearGradient><linearGradient id="e" x1="13.563" x2="15.563" y1="27.517" y2="21.923" gradientUnits="userSpaceOnUse"><stop offset=".218" stop-color="#E2992F"/><stop offset="1" stop-color="#E2992F" stop-opacity="0"/></linearGradient><linearGradient id="g" x1="14.641" x2="12.533" y1="20.53" y2="24.242" gradientUnits="userSpaceOnUse"><stop offset=".34" stop-color="#FFE15B"/><stop offset="1" stop-color="#C97A03"/></linearGradient><linearGradient id="h" x1="11.755" x2="11.755" y1="19.142" y2="25.142" gradientUnits="userSpaceOnUse"><stop stop-color="#FFC609"/><stop offset="1" stop-color="#FEA70C"/></linearGradient><linearGradient id="l" x1="11.563" x2="20" y1="31.517" y2="-.858" gradientUnits="userSpaceOnUse"><stop stop-color="#F0A130"/><stop offset="1" stop-color="#FFD135"/></linearGradient><linearGradient id="t" x1="24.971" x2="17.565" y1="11.235" y2="3.423" gradientUnits="userSpaceOnUse"><stop stop-color="#FFED65" stop-opacity="0"/><stop offset=".51" stop-color="#FFED65"/><stop offset="1" stop-color="#FFED65" stop-opacity="0"/></linearGradient><linearGradient id="v" x1="8.313" x2="21.251" y1="2.017" y2="24.121" gradientUnits="userSpaceOnUse"><stop stop-color="#FFED65" stop-opacity="0"/><stop offset=".698" stop-color="#FFED65"/></linearGradient><filter id="a" width="15.705" height="12.527" x="9.486" y="2.817" color-interpolation-filters="sRGB" filterUnits="userSpaceOnUse"><feFlood flood-opacity="0" result="BackgroundImageFix"/><feBlend in="SourceGraphic" in2="BackgroundImageFix" result="shape"/><feGaussianBlur result="effect1_foregroundBlur_20020_4615" stdDeviation=".5"/></filter><filter id="c" width="12.531" height="17.719" x="7.531" y="11.517" color-interpolation-filters="sRGB" filterUnits="userSpaceOnUse"><feFlood flood-opacity="0" result="BackgroundImageFix"/><feBlend in="SourceGraphic" in2="BackgroundImageFix" result="shape"/><feGaussianBlur result="effect1_foregroundBlur_20020_4615" stdDeviation=".25"/></filter><filter id="f" width="7.349" height="7.349" x="8.61" y="18.543" color-interpolation-filters="sRGB" filterUnits="userSpaceOnUse"><feFlood flood-opacity="0" result="BackgroundImageFix"/><feBlend in="SourceGraphic" in2="BackgroundImageFix" result="shape"/><feGaussianBlur result="effect1_foregroundBlur_20020_4615" stdDeviation=".375"/></filter><filter id="j" width="6.234" height="6.234" x="8.656" y="19.196" color-interpolation-filters="sRGB" filterUnits="userSpaceOnUse"><feFlood flood-opacity="0" result="BackgroundImageFix"/><feBlend in="SourceGraphic" in2="BackgroundImageFix" result="shape"/><feGaussianBlur result="effect1_foregroundBlur_20020_4615" stdDeviation=".25"/></filter><filter id="k" width="19.085" height="27.786" x="6.708" y="2.075" color-interpolation-filters="sRGB" filterUnits="userSpaceOnUse"><feFlood flood-opacity="0" result="BackgroundImageFix"/><feBlend in="SourceGraphic" in2="BackgroundImageFix" result="shape"/><feColorMatrix in="SourceAlpha" result="hardAlpha" values="0 0 0 0 0 0 0 0 0 0 0 0 0 0 0 0 0 0 127 0"/><feOffset dx=".5"/><feGaussianBlur stdDeviation="1"/><feComposite in2="hardAlpha" k2="-1" k3="1" operator="arithmetic"/><feColorMatrix values="0 0 0 0 0.917647 0 0 0 0 0.6 0 0 0 0 0.231373 0 0 0 1 0"/><feBlend in2="shape" result="effect1_innerShadow_20020_4615"/></filter><filter id="s" width="12.094" height="12.656" x="14.44" y="1.079" color-interpolation-filters="sRGB" filterUnits="userSpaceOnUse"><feFlood flood-opacity="0" result="BackgroundImageFix"/><feBlend in="SourceGraphic" in2="BackgroundImageFix" result="shape"/><feGaussianBlur result="effect1_foregroundBlur_20020_4615" stdDeviation=".75"/></filter><filter id="u" width="13.063" height="22.313" x="6.813" y="7.985" color-interpolation-filters="sRGB" filterUnits="userSpaceOnUse"><feFlood flood-opacity="0" result="BackgroundImageFix"/><feBlend in="SourceGraphic" in2="BackgroundImageFix" result="shape"/><feGaussianBlur result="effect1_foregroundBlur_20020_4615" stdDeviation=".75"/></filter></defs></svg>
